polaris-icons/icons/LocationValidIcon.svg

<svg xmlns="http://www.w3.org/2000/svg" width="20" height="20" viewBox="0 0 20 20" fill="none">
  <path d="M12.5762 7.98014C12.8413 7.66193 12.7983 7.18901 12.4801 6.92383C12.1619 6.65866 11.689 6.70165 11.4238 7.01986L9.4496 9.38894L8.53033 8.46967C8.23744 8.17678 7.76256 8.17678 7.46967 8.46967C7.17678 8.76256 7.17678 9.23744 7.46967 9.53033L8.96967 11.0303C9.11867 11.1793 9.32348 11.2588 9.53399 11.2492C9.74449 11.2397 9.94127 11.142 10.0762 10.9801L12.5762 7.98014Z" fill="#4A4A4A"/>
  <path fill-rule="evenodd" clip-rule="evenodd" d="M10 2.5C6.82767 2.5 4.25 5.06063 4.25 8.2267C4.25 10.9258 5.37808 13.2122 6.59022 14.8082C6.93107 15.257 7.28233 15.6564 7.62343 16H5.75C5.33579 16 5 16.3358 5 16.75C5 17.1642 5.33579 17.5 5.75 17.5H14.25C14.6642 17.5 15 17.1642 15 16.75C15 16.3358 14.6642 16 14.25 16H12.3766C12.7177 15.6564 13.0689 15.257 13.4098 14.8082C14.6219 13.2122 15.75 10.9258 15.75 8.2267C15.75 5.06063 13.1723 2.5 10 2.5ZM5.75 8.2267C5.75 5.89566 7.64948 4 10 4C12.3505 4 14.25 5.89566 14.25 8.2267C14.25 10.5042 13.2947 12.4796 12.2152 13.901C11.677 14.6096 11.1199 15.1643 10.6615 15.5347C10.4314 15.7206 10.2372 15.8511 10.0922 15.931C10.0541 15.952 10.0235 15.9671 10 15.978C9.97645 15.9671 9.94589 15.952 9.90778 15.931C9.76284 15.8511 9.56858 15.7206 9.33851 15.5347C8.88011 15.1643 8.32296 14.6096 7.78478 13.901C6.70525 12.4796 5.75 10.5042 5.75 8.2267Z" fill="#4A4A4A"/>
</svg>

<svg xmlns="http://www.w3.org/2000/svg" viewBox="0 0 20 20"><path d="M12.576 7.98c.265-.318.222-.791-.096-1.056s-.791-.222-1.056.096l-1.974 2.369-.92-.92c-.293-.292-.767-.292-1.06 0-.293.294-.293.768 0 1.061l1.5 1.5c.149.15.353.229.564.22.21-.01.407-.108.542-.27l2.5-3Z"/><path fill-rule="evenodd" d="M10 2.5c-3.172 0-5.75 2.56-5.75 5.727 0 2.699 1.128 4.985 2.34 6.581.341.449.692.848 1.033 1.192h-1.873c-.414 0-.75.336-.75.75s.336.75.75.75h8.5c.414 0 .75-.336.75-.75s-.336-.75-.75-.75h-1.873c.34-.344.692-.743 1.033-1.192 1.212-1.596 2.34-3.882 2.34-6.581 0-3.166-2.578-5.727-5.75-5.727Zm-4.25 5.727c0-2.331 1.9-4.227 4.25-4.227s4.25 1.896 4.25 4.227c0 2.277-.955 4.253-2.035 5.674-.538.709-1.095 1.263-1.553 1.634-.23.186-.425.316-.57.396-.038.021-.069.036-.092.047-.024-.01-.054-.026-.092-.047-.145-.08-.34-.21-.57-.396-.458-.37-1.015-.925-1.553-1.634-1.08-1.421-2.035-3.397-2.035-5.674Z"/></svg>
